src/Eleven/16/symbolic/categories/emoji-body-symbolic.svg

<?xml version="1.0" encoding="UTF-8" standalone="no"?>
<svg
   width="16"
   height="16"
   version="1.1"
   id="svg1"
   sodipodi:docname="emoji-body-symbolic.svg"
   inkscape:version="1.4.2 (ebf0e940d0, 2025-05-08)"
   xmlns:inkscape="http://www.inkscape.org/namespaces/inkscape"
   xmlns:sodipodi="http://sodipodi.sourceforge.net/DTD/sodipodi-0.dtd"
   xmlns="http://www.w3.org/2000/svg"
   xmlns:svg="http://www.w3.org/2000/svg">
  <defs
     id="defs1">
     <style
        id="current-color-scheme"
        type="text/css">
        .ColorScheme-Text { color:#363636; }
        .ColorScheme-NeutralText { color:#f67400; }
        .ColorScheme-PositiveText { color:#37c837; }
        .ColorScheme-NegativeText { color:#f44336; }
        .ColorScheme-Highlight { color:#3daee9; }
     </style>
  </defs>
  <sodipodi:namedview
     id="namedview1"
     pagecolor="#ffffff"
     bordercolor="#000000"
     borderopacity="0.25"
     inkscape:showpageshadow="2"
     inkscape:pageopacity="0.0"
     inkscape:pagecheckerboard="0"
     inkscape:deskcolor="#d1d1d1"
     inkscape:zoom="49.6875"
     inkscape:cx="8"
     inkscape:cy="8"
     inkscape:window-width="1920"
     inkscape:window-height="1010"
     inkscape:window-x="0"
     inkscape:window-y="0"
     inkscape:window-maximized="1"
     inkscape:current-layer="svg1" />
  <path
     id="path1"
     style="fill:currentColor"
     class="ColorScheme-Text"
     d="M 8.9667969 1 A 1 1 0 0 0 7.9746094 2.1210938 C 7.9896094 2.2480938 7.998 2.3749531 8 2.5019531 A 3.49 3.49 0 0 1 5.6230469 5.8144531 C 5.4750469 5.8754531 5.2108437 6.0019531 5.0898438 6.0019531 L 3 6 C 2.446 6 2 6.446 2 7 L 2 13 C 2 13.554 2.446 14 3 14 L 5 14 L 11.015625 14.972656 A 1.903 1.903 0 0 0 13.177734 13.589844 L 14.837891 7.3945312 A 1.903 1.903 0 0 0 13 5 L 11.546875 5 C 11.592875 4.686 11.621094 4.355 11.621094 4 C 11.621094 3.363 11.549531 2.7871094 11.394531 2.2871094 A 2.297 2.297 0 0 0 11.046875 1.5644531 C 10.868875 1.3244531 10.518 1 10 1 L 8.9667969 1 z M 9.2402344 2.1035156 L 10 2.1035156 C 10.041 2.1035156 10.095203 2.13175 10.158203 2.21875 C 10.222203 2.30475 10.285844 2.4422344 10.339844 2.6152344 C 10.447844 2.9622344 10.517578 3.455 10.517578 4 C 10.517578 4.529 10.449656 5.0026563 10.347656 5.3476562 C 10.327656 5.3996562 10.330266 5.4598594 10.322266 5.5058594 C 10.322266 5.7818594 10.546266 6 10.822266 6 L 13 6 A 0.902 0.902 0 0 1 13.871094 7.1367188 L 12.210938 13.332031 A 0.902 0.902 0 0 1 11.185547 13.986328 L 6 13.091797 L 6 6.8320312 A 4.599 4.599 0 0 0 9.1035156 2.5 L 9.1035156 2.4980469 C 9.1015156 2.3720469 9.090125 2.2470937 9.078125 2.1210938 L 9.2402344 2.1035156 z M 3 7 L 5 7 L 5 13 L 3 13 L 3 7 z " />
</svg>

<svg xmlns="http://www.w3.org/2000/svg" width="16" height="16"><path d="M8.967 1a1 1 0 0 0-.992 1.121c.015.127.023.254.025.381a3.49 3.49 0 0 1-2.376 3.312c-.148.061-.414.188-.535.188L3 6c-.554 0-1 .446-1 1v6c0 .554.446 1 1 1h2l6.016.973a1.903 1.903 0 0 0 2.162-1.383l1.66-6.195A1.903 1.903 0 0 0 13 5h-1.453c.046-.314.074-.645.074-1 0-.637-.071-1.213-.226-1.713a2.297 2.297 0 0 0-.348-.723C10.869 1.324 10.518 1 10 1zm.273 1.104H10c.041 0 .095.028.158.115.064.086.128.223.182.396.108.347.178.84.178 1.385 0 .529-.068 1.003-.17 1.348-.02.052-.018.112-.026.158 0 .276.224.494.5.494H13a.902.902 0 0 1 .871 1.137l-1.66 6.195a.902.902 0 0 1-1.025.654L6 13.092V6.833A4.599 4.599 0 0 0 9.104 2.5v-.002c-.002-.126-.014-.251-.026-.377zM3 7h2v6H3z" style="font-variation-settings:normal" fill="#363636"/></svg>
